X: 3173
T: DUKE OF SUTHERLAND
C: Jos Lowe
Q: "Strathspey."
R: Strathspey.
%R: strathspey
B: James Kerr "Merry Melodies" v.3 p.20 #173
Z: 2016 John Chambers <jc:trillian.mit.edu>
M: C
L: 1/8
K: Bb
G |\
F<B, D>F G/F/E/D/ C<G | F<B, D>B F>BF>B |\
D>BD>B C<EE>G | F<B B/c/d/c/ B2-BG |\
F<B, D>F G/F/E/D/ C<G | F<B, D>B F>BF>B |
E>BD>B C<EE>G | F<B B/c/d/c/ B2-B |]\
g |\
f>Bd>f g/f/e/d/ c<g | f>Bd>B F<B G/F/E/D/ |\
(3EGE (3DFD C>DE>G  |
F<B B/c/d/c/ B2-Bg |\
f>Bd>f g/f/e/d/ c<g | (3fBd (3fga (3bag (3fed |\
(3efg (3fed c>Bc>d | F<B B/c/d/c/ B2-B |]

%%sep 1 1 500
%%sep 1 1 500

